travel/img/icons/steps1.svg

<svg width="50" height="45" viewBox="0 0 50 45" fill="none" xmlns="http://www.w3.org/2000/svg">
<path d="M10.4167 41.7548C8.4828 41.7548 6.62813 40.957 5.26068 39.537C3.89323 38.1169 3.125 36.1909 3.125 34.1827C3.125 32.1744 3.89323 30.2484 5.26068 28.8284C6.62813 27.4084 8.4828 26.6106 10.4167 26.6106C12.3505 26.6106 14.2052 27.4084 15.5727 28.8284C16.9401 30.2484 17.7083 32.1744 17.7083 34.1827C17.7083 36.1909 16.9401 38.1169 15.5727 39.537C14.2052 40.957 12.3505 41.7548 10.4167 41.7548ZM10.4167 23.3654C7.65399 23.3654 5.00447 24.5051 3.05097 26.5337C1.09747 28.5623 0 31.3138 0 34.1827C0 37.0516 1.09747 39.803 3.05097 41.8317C5.00447 43.8603 7.65399 45 10.4167 45C13.1793 45 15.8289 43.8603 17.7824 41.8317C19.7359 39.803 20.8333 37.0516 20.8333 34.1827C20.8333 31.3138 19.7359 28.5623 17.7824 26.5337C15.8289 24.5051 13.1793 23.3654 10.4167 23.3654ZM30.8333 19.0385H39.5833V15.1442H32.9167L28.875 8.06971C28.2708 6.98798 27.0833 6.27404 25.8333 6.27404C24.8542 6.27404 23.9583 6.6851 23.3333 7.35577L15.625 15.3389C14.9792 16.0096 14.5833 16.875 14.5833 17.9567C14.5833 19.3197 15.2708 20.4663 16.3542 21.137L23.3333 25.5288V36.3462H27.0833V22.2837L22.3958 18.7139L27.2292 13.6298L30.8333 19.0385ZM39.5833 41.7548C37.6495 41.7548 35.7948 40.957 34.4273 39.537C33.0599 38.1169 32.2917 36.1909 32.2917 34.1827C32.2917 32.1744 33.0599 30.2484 34.4273 28.8284C35.7948 27.4084 37.6495 26.6106 39.5833 26.6106C41.5172 26.6106 43.3719 27.4084 44.7393 28.8284C46.1068 30.2484 46.875 32.1744 46.875 34.1827C46.875 36.1909 46.1068 38.1169 44.7393 39.537C43.3719 40.957 41.5172 41.7548 39.5833 41.7548ZM39.5833 23.3654C36.8207 23.3654 34.1711 24.5051 32.2176 26.5337C30.2641 28.5623 29.1667 31.3138 29.1667 34.1827C29.1667 37.0516 30.2641 39.803 32.2176 41.8317C34.1711 43.8603 36.8207 45 39.5833 45C40.9513 45 42.3058 44.7202 43.5696 44.1766C44.8334 43.633 45.9818 42.8362 46.949 41.8317C47.9163 40.8272 48.6836 39.6347 49.2071 38.3223C49.7306 37.0099 50 35.6032 50 34.1827C50 32.7621 49.7306 31.3555 49.2071 30.0431C48.6836 28.7307 47.9163 27.5382 46.949 26.5337C45.9818 25.5292 44.8334 24.7324 43.5696 24.1888C42.3058 23.6452 40.9513 23.3654 39.5833 23.3654ZM33.3333 7.78846C35.4167 7.78846 37.0833 6.05769 37.0833 3.89423C37.0833 1.73077 35.4167 0 33.3333 0C31.25 0 29.5833 1.73077 29.5833 3.89423C29.5833 6.05769 31.25 7.78846 33.3333 7.78846Z" fill="white"/>
</svg>

<svg width="50" height="45" viewBox="0 0 50 45" fill="none" xmlns="http://www.w3.org/2000/svg"><path d="M10.417 41.755a7.158 7.158 0 0 1-5.156-2.218 7.723 7.723 0 0 1-2.136-5.354 7.72 7.72 0 0 1 2.136-5.355 7.158 7.158 0 0 1 5.156-2.217c1.934 0 3.788.797 5.156 2.217a7.722 7.722 0 0 1 2.135 5.355 7.723 7.723 0 0 1-2.135 5.354 7.158 7.158 0 0 1-5.156 2.218Zm0-18.39c-2.763 0-5.413 1.14-7.366 3.169C1.097 28.562 0 31.314 0 34.183c0 2.869 1.097 5.62 3.051 7.649C5.004 43.86 7.654 45 10.417 45c2.762 0 5.412-1.14 7.365-3.168 1.954-2.029 3.051-4.78 3.051-7.65 0-2.868-1.097-5.62-3.05-7.648-1.954-2.029-4.604-3.169-7.366-3.169Zm20.416-4.326h8.75v-3.895h-6.666L28.875 8.07c-.604-1.082-1.792-1.796-3.042-1.796-.979 0-1.875.411-2.5 1.082l-7.708 7.983c-.646.67-1.042 1.536-1.042 2.618 0 1.363.688 2.51 1.771 3.18l6.98 4.392v10.817h3.75V22.284l-4.688-3.57 4.833-5.084 3.604 5.408Zm8.75 22.716a7.158 7.158 0 0 1-5.156-2.218 7.723 7.723 0 0 1-2.135-5.354c0-2.009.768-3.935 2.135-5.355a7.158 7.158 0 0 1 5.156-2.217c1.934 0 3.789.797 5.156 2.217a7.722 7.722 0 0 1 2.136 5.355 7.722 7.722 0 0 1-2.136 5.354 7.157 7.157 0 0 1-5.156 2.218Zm0-18.39c-2.762 0-5.412 1.14-7.365 3.169-1.954 2.028-3.051 4.78-3.051 7.649 0 2.869 1.097 5.62 3.05 7.649C34.172 43.86 36.822 45 39.584 45c1.368 0 2.723-.28 3.987-.823a10.398 10.398 0 0 0 3.379-2.345 10.855 10.855 0 0 0 2.258-3.51 11.18 11.18 0 0 0 .793-4.14c0-1.42-.27-2.827-.793-4.139a10.855 10.855 0 0 0-2.258-3.51 10.398 10.398 0 0 0-3.38-2.344 10.083 10.083 0 0 0-3.986-.824Zm-6.25-15.577c2.084 0 3.75-1.73 3.75-3.894 0-2.163-1.666-3.894-3.75-3.894-2.083 0-3.75 1.73-3.75 3.894s1.667 3.894 3.75 3.894Z" fill="#fff"/></svg>
